assets/images/loader/item-2.svg

<svg width="136" height="136" viewBox="0 0 136 136" fill="none" xmlns="http://www.w3.org/2000/svg">
<circle cx="67.8344" cy="67.8344" r="67.8344" fill="#001AA5"/>
<path d="M36.7236 34.9565L33.3712 38.2481L36.9973 41.7652L35.971 42.7797L27.875 34.7987L32.8238 29.9514L33.6905 30.8081L29.7679 34.6859L32.4361 37.3689L35.857 34.0998L36.7236 34.9565Z" fill="#0029FF"/>
<path d="M41.784 30.9659L41.5559 32.8147L43.5172 36.0386L42.2857 36.8052L36.2422 27.3136L37.4737 26.5245L40.4384 31.1688L40.6437 29.4554L41.2366 24.2023L42.719 23.278L41.9892 29.523L48.9906 32.6343L47.5082 33.5587L41.784 30.9659Z" fill="#0029FF"/>
<path d="M51.1336 30.5829L56.3561 28.7567L56.7666 29.884L50.1757 32.1385L46.3672 21.6324L47.7355 21.1589L51.1336 30.5829Z" fill="#0029FF"/>
<path d="M112.917 64.851L112.165 60.3419L107.216 61.131L106.965 59.6881L118.185 57.907L119.28 64.6706L118.071 64.8735L117.205 59.4852L113.373 60.0939L114.103 64.7157L112.917 64.851Z" fill="#0029FF"/>
<path d="M113.256 71.2773L111.91 69.9472L108.079 69.7217V68.2788L119.482 68.9101V70.3755L113.94 70.0599L115.24 71.2097L119.094 74.7268L118.98 76.4628L114.259 72.2693L107.691 76.1021V74.3661L113.256 71.2773Z" fill="#0029FF"/>
<path d="M108.155 79.0096L106.649 84.2853L105.418 83.9471L107.334 77.1835L118.235 80.2496L117.847 81.6249L108.155 79.0096Z" fill="#0029FF"/>
<path d="M53.3021 112.874L57.8633 113.978L59.072 109.086L60.4859 109.424L57.7948 120.359L50.9531 118.713L51.2496 117.54L56.6089 118.826L57.5212 115.106L52.96 114.001L53.3021 112.874Z" fill="#0029FF"/>
<path d="M47.1721 110.686L48.9509 109.965L50.6842 106.56L52.0069 107.214L46.9896 117.269L45.6669 116.616L48.1071 111.701L46.5335 112.445L41.5619 114.677L39.9883 113.91L45.8265 111.34L44.8687 103.832L46.4423 104.599L47.1721 110.686Z" fill="#0029FF"/>
<path d="M41.9923 103.021L37.6592 99.5714L38.4346 98.6245L43.8396 102.953L36.7926 111.701L35.6523 110.822L41.9923 103.021Z" fill="#0029FF"/>
<circle cx="68.4555" cy="68.4564" r="28.1273" stroke="white"/>
<circle cx="68.4562" cy="68.4561" r="20.6593" stroke="#0029FF"/>
<circle r="6.968" transform="matrix(-1 0 0 1 93.3523 28.6278)" stroke="white"/>
<circle r="6.968" transform="matrix(-1 0 0 1 93.3523 107.041)" stroke="white"/>
<circle r="6.968" transform="matrix(-1 0 0 1 21.1609 73.435)" stroke="white"/>
</svg>

<svg width="136" height="136" fill="none" xmlns="http://www.w3.org/2000/svg"><circle cx="67.834" cy="67.834" r="67.834" fill="#001AA5"/><path d="M36.724 34.956l-3.353 3.292 3.626 3.517-1.026 1.015-8.096-7.981 4.949-4.848.867.857-3.923 3.878 2.668 2.683 3.421-3.27.867.858zm5.06-3.99l-.228 1.849 1.961 3.224-1.231.766-6.044-9.491 1.232-.79 2.964 4.645.206-1.714.593-5.253 1.482-.924-.73 6.245 7.002 3.111-1.483.925-5.724-2.593zm9.35-.383l5.222-1.826.41 1.127-6.59 2.255-3.809-10.507 1.369-.473 3.398 9.424zm61.783 34.268l-.752-4.51-4.949.79-.251-1.443 11.22-1.781 1.095 6.764-1.209.203-.866-5.389-3.832.609.73 4.622-1.186.135zm.339 6.426l-1.346-1.33-3.831-.225v-1.443l11.403.631v1.466l-5.542-.316 1.3 1.15 3.854 3.517-.114 1.736-4.721-4.194-6.568 3.833v-1.736l5.565-3.089zm-5.101 7.733l-1.506 5.275-1.231-.338 1.916-6.764 10.901 3.067-.388 1.375-9.692-2.615zm-54.853 33.864l4.561 1.104 1.209-4.892 1.414.338-2.691 10.935-6.842-1.646.297-1.173 5.359 1.286.912-3.72-4.561-1.105.342-1.127zm-6.13-2.188l1.779-.721 1.733-3.405 1.323.654-5.017 10.055-1.323-.653 2.44-4.915-1.574.744-4.971 2.232-1.574-.767 5.839-2.57-.958-7.508 1.573.767.73 6.087zm-5.18-7.665l-4.333-3.45.776-.947 5.405 4.329-7.047 8.748-1.14-.879 6.34-7.801z" fill="#0029FF"/><circle cx="68.456" cy="68.456" r="28.127" stroke="#fff"/><circle cx="68.456" cy="68.456" r="20.659" stroke="#0029FF"/><circle r="6.968" transform="matrix(-1 0 0 1 93.352 28.628)" stroke="#fff"/><circle r="6.968" transform="matrix(-1 0 0 1 93.352 107.041)" stroke="#fff"/><circle r="6.968" transform="matrix(-1 0 0 1 21.16 73.435)" stroke="#fff"/></svg>
